src/lib/packages/icons/src/assets/line/behance.svg

<svg width="24" height="24" viewBox="0 0 24 24" fill="none" xmlns="http://www.w3.org/2000/svg">
<path d="M10.2 11.52C11.19 11.05 11.7 10.34 11.7 9.23001C11.7 7.03001 10.07 6.5 8.19 6.5H3V17.5H8.33C10.33 17.5 12.21 16.54 12.21 14.31C12.21 12.92 11.55 11.9 10.2 11.52ZM5.42999 8.10999H7.72C8.6 8.10999 9.39 8.35 9.39 9.37C9.39 10.31 8.76999 10.69 7.89999 10.69H5.42999V8.10999ZM8.03999 15.41H5.42999V12.36H8.09C9.16 12.36 9.84 12.81 9.84 13.94C9.84 15.07 9.02999 15.41 8.03999 15.41ZM19.24 7.89001H14.75V6.79999H19.24V7.89001ZM21 13.4C21 11.03 19.61 9.04999 17.1 9.04999C14.59 9.04999 13 10.89 13 13.29C13 15.69 14.57 17.5 17.1 17.5C19.01 17.5 20.25 16.64 20.85 14.81H18.91C18.7 15.49 17.84 15.85 17.17 15.85C15.88 15.85 15.2 15.1 15.2 13.81H20.98C20.99 13.68 21 13.54 21 13.4ZM15.2 12.42C15.27 11.37 15.97 10.71 17.03 10.71C18.09 10.71 18.69 11.36 18.78 12.42H15.2Z" fill="currentColor"/>
</svg>

<svg xmlns="http://www.w3.org/2000/svg" width="24" height="24" fill="none"><path fill="currentColor" d="M10.2 11.52c.99-.47 1.5-1.18 1.5-2.29 0-2.2-1.63-2.73-3.51-2.73H3v11h5.33c2 0 3.88-.96 3.88-3.19 0-1.39-.66-2.41-2.01-2.79ZM5.43 8.11h2.29c.88 0 1.67.24 1.67 1.26 0 .94-.62 1.32-1.49 1.32H5.43V8.11Zm2.61 7.3H5.43v-3.05h2.66c1.07 0 1.75.45 1.75 1.58 0 1.13-.81 1.47-1.8 1.47Zm11.2-7.52h-4.49V6.8h4.49v1.09ZM21 13.4c0-2.37-1.39-4.35-3.9-4.35S13 10.89 13 13.29c0 2.4 1.57 4.21 4.1 4.21 1.91 0 3.15-.86 3.75-2.69h-1.94c-.21.68-1.07 1.04-1.74 1.04-1.29 0-1.97-.75-1.97-2.04h5.78c.01-.13.02-.27.02-.41Zm-5.8-.98c.07-1.05.77-1.71 1.83-1.71s1.66.65 1.75 1.71H15.2Z"/></svg>
